app/img/contact/ic_name_1.svg

<svg width="24" height="20" viewBox="0 0 24 20" fill="none" xmlns="http://www.w3.org/2000/svg">
    <path fill-rule="evenodd" clip-rule="evenodd"
          d="M1.19892 20C0.753353 20.0003 0.344457 19.7696 0.137412 19.4018C-0.0696326 19.0337 -0.0410748 18.589 0.212052 18.2469C2.81244 14.7762 7.12565 12.5 12.0042 12.5C16.883 12.5 21.1963 14.7762 23.7895 18.2518C24.0407 18.5911 24.0692 19.0328 23.8635 19.3982C23.6581 19.7636 23.2521 19.9924 22.8098 19.9924C22.8013 20 22.7929 20 22.7845 20C22.4126 20 22.065 19.8271 21.8573 19.5393C19.6992 16.6219 16.0893 14.7105 12.0042 14.7105C7.91943 14.7105 4.30946 16.6219 2.14717 19.5365C1.94045 19.8232 1.59451 19.9949 1.22423 19.9949C1.2158 20 1.20736 20 1.19892 20V20Z"
          fill="#5E2CE6" fill-opacity="0.8"/>
    <path fill-rule="evenodd" clip-rule="evenodd"
          d="M12.0002 0C9.03161 0 6.62109 2.427 6.62109 5.41667C6.62109 8.40633 9.03161 10.8333 12.0002 10.8333C14.9692 10.8333 17.3797 8.40633 17.3797 5.41667C17.3797 2.427 14.9692 0 12.0002 0V0ZM12.0002 2.38006C13.6646 2.38006 15.0158 3.74075 15.0158 5.41667C15.0158 7.09259 13.6646 8.45327 12.0002 8.45327C10.3359 8.45327 8.98499 7.09259 8.98499 5.41667C8.98499 3.74075 10.3359 2.38006 12.0002 2.38006Z"
          fill="#5E2CE6" fill-opacity="0.8"/>
</svg>

<svg width="24" height="20" fill="none" xmlns="http://www.w3.org/2000/svg"><path fill-rule="evenodd" clip-rule="evenodd" d="M1.199 20c-.446 0-.855-.23-1.062-.598a1.055 1.055 0 0 1 .075-1.155c2.6-3.47 6.914-5.747 11.792-5.747 4.879 0 9.192 2.276 11.786 5.752.25.34.28.78.073 1.146a1.203 1.203 0 0 1-1.053.594c-.009.008-.017.008-.025.008-.372 0-.72-.173-.928-.46-2.158-2.918-5.768-4.83-9.853-4.83s-7.695 1.912-9.857 4.826a1.136 1.136 0 0 1-.923.459C1.216 20 1.207 20 1.2 20ZM12 0C9.032 0 6.621 2.427 6.621 5.417c0 2.99 2.41 5.416 5.38 5.416 2.968 0 5.379-2.427 5.379-5.416C17.38 2.427 14.97 0 12 0Zm0 2.38c1.665 0 3.016 1.36 3.016 3.037 0 1.676-1.351 3.036-3.016 3.036-1.664 0-3.015-1.36-3.015-3.036S10.335 2.38 12 2.38Z" fill="#5E2CE6" fill-opacity=".8"/></svg>
